findly-builder/apps/searchassist/src/assets/images/source-icos/file_upload.svg

<svg width="76" height="76" viewBox="0 0 76 76" fill="none" xmlns="http://www.w3.org/2000/svg">
<path d="M53.0415 52.25H22.9582C22.5212 52.25 22.1665 51.8953 22.1665 51.4583V49.875C22.1665 49.438 22.5212 49.0833 22.9582 49.0833H53.0415C53.4785 49.0833 53.8332 49.438 53.8332 49.875V51.4583C53.8332 51.8953 53.4785 52.25 53.0415 52.25Z" fill="#EAF6EC"/>
<path opacity="0.5" d="M61.75 44.3333H14.25V64.9166C14.25 66.6662 15.6671 68.0833 17.4167 68.0833H58.5833C60.3329 68.0833 61.75 66.6662 61.75 64.9166V44.3333Z" fill="#DD3646"/>
<path d="M61.75 25.3334V44.3334H14.25V11.0834C14.25 9.33377 15.6671 7.91669 17.4167 7.91669H44.3333L61.75 25.3334Z" fill="#93D3A2"/>
<path d="M44.3335 7.91669V22.1667C44.3335 23.9163 45.7506 25.3334 47.5002 25.3334H61.7502L44.3335 7.91669Z" fill="#28A745"/>
<path d="M53.0415 33.25H22.9582C22.5212 33.25 22.1665 32.8953 22.1665 32.4583V30.875C22.1665 30.438 22.5212 30.0833 22.9582 30.0833H53.0415C53.4785 30.0833 53.8332 30.438 53.8332 30.875V32.4583C53.8332 32.8953 53.4785 33.25 53.0415 33.25Z" fill="#EAF6EC"/>
<path d="M53.0415 39.5834H22.9582C22.5212 39.5834 22.1665 39.2287 22.1665 38.7917V37.2084C22.1665 36.7714 22.5212 36.4167 22.9582 36.4167H53.0415C53.4785 36.4167 53.8332 36.7714 53.8332 37.2084V38.7917C53.8332 39.2287 53.4785 39.5834 53.0415 39.5834Z" fill="#EAF6EC"/>
<path d="M69.6667 45.9167H6.33333C5.45775 45.9167 4.75 45.2089 4.75 44.3333C4.75 43.4578 5.45775 42.75 6.33333 42.75H69.6667C70.5423 42.75 71.25 43.4578 71.25 44.3333C71.25 45.2089 70.5423 45.9167 69.6667 45.9167Z" fill="#DD3646"/>
</svg>

<svg width="76" height="76" fill="none" xmlns="http://www.w3.org/2000/svg"><path d="M53.041 52.25H22.959a.792.792 0 0 1-.791-.792v-1.583c0-.437.354-.792.791-.792h30.084c.436 0 .791.355.791.792v1.583a.792.792 0 0 1-.791.792Z" fill="#EAF6EC"/><path opacity=".5" d="M61.75 44.333h-47.5v20.584a3.166 3.166 0 0 0 3.167 3.166h41.166a3.166 3.166 0 0 0 3.167-3.166V44.333Z" fill="#DD3646"/><path d="M61.75 25.333v19h-47.5v-33.25a3.166 3.166 0 0 1 3.167-3.166h26.916L61.75 25.333Z" fill="#93D3A2"/><path d="M44.334 7.917v14.25a3.166 3.166 0 0 0 3.166 3.166h14.25L44.334 7.917Z" fill="#28A745"/><path d="M53.041 33.25H22.959a.792.792 0 0 1-.791-.792v-1.583c0-.437.354-.792.791-.792h30.084c.436 0 .791.355.791.792v1.583a.792.792 0 0 1-.791.792Zm0 6.333H22.959a.792.792 0 0 1-.791-.791v-1.584a.79.79 0 0 1 .791-.791h30.084c.436 0 .791.354.791.791v1.584a.792.792 0 0 1-.791.791Z" fill="#EAF6EC"/><path d="M69.667 45.917H6.333a1.582 1.582 0 0 1-1.583-1.584c0-.875.708-1.583 1.583-1.583h63.334c.875 0 1.583.708 1.583 1.583 0 .876-.708 1.584-1.583 1.584Z" fill="#DD3646"/></svg>
